!!!COM:	Bach, Johann Sebastian
!!!CDT:	1685/02/21/-1750/07/28/
!!!OTL@@DE:	Vater unser im Himmelreich
!!!SCT:	BWV 245/5 & 416
!!!PC#:	47
!!!AGN:	chorale
**kern	**kern	**kern	**kern
*ICvox	*ICvox	*ICvox	*ICvox
*Ibass	*Itenor	*Ialto	*Isoprn
*I"Bass	*I"Tenor	*I"Alto	*I"Soprano
*clefF4	*clefGv2	*clefG2	*clefG2
*k[b-]	*k[b-]	*k[b-]	*k[b-]
*d:	*d:	*d:	*d:
*M4/4	*M4/4	*M4/4	*M4/4
*met(c)	*met(c)	*met(c)	*met(c)
*MM100	*MM100	*MM100	*MM100
4D	4d	4f	4a
=1	=1	=1	=1
4C#	4A	4e	4a
4D	4A	4d	4f
4E	4G	4c#	4g
8FL	4d	8dL	4a
8GJ	.	8eJ	.
=2	=2	=2	=2
4A	4d	4f	4f
4AA	4A	4c#	4e
4D;	4F;	4A;	4d;
4D	4d	4f	4a
=3	=3	=3	=3
4C	4A	4e	4a
4BB-	4B-	4d	4g
8AAL	4c	4e	4cc
8CJ	.	.	.
4F	4c	4f	4a
=4	=4	=4	=4
4B-	8dL	4f	4f
.	8c#J	.	.
4B-	4d	8eL	4g
.	.	8dJ	.
4A;	4c#;	4e;	4a;
8AL	4c	4e	8aL
8GJ	.	.	8bJ
=5	=5	=5	=5
4.F	8cL	4a	4cc
.	8AJ	.	.
.	8BL	4g	8ddL
8E	8c#J	.	8eeJ
4D	8dL	4f	4ff
.	8cJ	.	.
4G	4B-	4g	4ee
=6	=6	=6	=6
4G#	4BnX	8fL	4dd
.	.	8eJ	.
4A	4A	4e	4cc#
4D;	4A;	4f;	4dd;
4G	4B	4f	4dd
=7	=7	=7	=7
4C	8BL	4e	4ee
.	8AJ	.	.
4BBnX	8AL	4b	4dd
.	8G#J	.	.
4AA	4A	4e	4cc
4E	4G#	8eL	4b
.	.	8dJ	.
=8	=8	=8	=8
4F	4A	8cL	4a
.	.	8dJ	.
4E	4B	4e	4g#
4AA;	4c;	4e;	4a;
8GnXL	4B	4g	4dd
8FJ	.	.	.
=9	=9	=9	=9
4E	4c	4g	4cc
4D	4d	4f	4b
4C	4e	4g	4cc
8DL	4d	4f	4a
8CJ	.	.	.
=10	=10	=10	=10
4BB-X	8dL	4f	4a
.	8cJ	.	.
4C	4B-X	4e	4g
4F;	4A;	4c;	4f;
4F#	4A	4d	4a
=11	=11	=11	=11
4G	8GL	4d	4b-
.	8FnXJ	.	.
4C#	4E	4e	8aL
.	.	.	8gJ
8DL	4A	4d	4f
8C	.	.	.
8BB-	8GL	4d	4g
8AAJ	8AJ	.	.
=12	=12	=12	=12
4GG#	4B	4d	4f
4AA	8EL	4c#	4e
.	16FL	.	.
.	16GJJ	.	.
4D;	4F#;	4A;	4d;
==	==	==	==
*-	*-	*-	*-
!!!hum2abc: -Q ''
!!!title: @{PC#}. @{OTL@@DE}
!!!YOR1: 371 vierstimmige Choralges&auml;nge von Johann Sebastian Bach, 
!!!YOR2: 4th ed. by Alfred D&ouml;rffel (Leipzig: Breitkopf und H&auml;rtel, 
!!!YOR2: c.1875). 178 pp. Plate "V.A.10".  reprint: J.S. Bach, 371 Four-Part 
!!!YOR4: Chorales (New York: Associated Music Publishers, Inc., c.1940).
!!!SMS: B&H, 4th ed, Alfred D&ouml;rffel, c.1875, plate V.A.10
!!!EED:  Craig Stuart Sapp
!!!EEV:  2009/05/22
